X:1
T:RVW2/1/48 ? [No Title]-0
T:RVW2/1/48 ? [No Title]-0
T:Sung by Mrs. Dann at Cottenham, August 3rd 1907 (2 of 4)
T:Transcribed by Simon Furey and Lewis Jones
C:Transcribed by Simon Furey and Lewis Jones
L:1/8
Q:1/4=100
M:4/4
K:C
V:1 treble 
V:1
 G2 | c2 cB A2 B2 | c2 BA G2 G2 | c3 B A2 ec | d6 G2 | cdef g2 gg | fedc A2 c2 | ABde f2 ed | c6 |] %9

